icons/svg/education/school_secondary.svg

<?xml version="1.0" encoding="UTF-8" standalone="no"?>
<!-- Created with Inkscape (http://www.inkscape.org/) -->

<svg
   xmlns:dc="http://purl.org/dc/elements/1.1/"
   xmlns:cc="http://creativecommons.org/ns#"
   xmlns:rdf="http://www.w3.org/1999/02/22-rdf-syntax-ns#"
   xmlns:svg="http://www.w3.org/2000/svg"
   xmlns="http://www.w3.org/2000/svg"
   xmlns:sodipodi="http://sodipodi.sourceforge.net/DTD/sodipodi-0.dtd"
   xmlns:inkscape="http://www.inkscape.org/namespaces/inkscape"
   version="1.0"
   width="580"
   height="580"
   id="svg2"
   sodipodi:version="0.32"
   inkscape:version="0.47 r22583"
   sodipodi:docname="education_school_secondary.svg"
   inkscape:output_extension="org.inkscape.output.svg.inkscape">
  <metadata
     id="metadata2975">
    <rdf:RDF>
      <cc:Work
         rdf:about="">
        <dc:format>image/svg+xml</dc:format>
        <dc:type
           rdf:resource="http://purl.org/dc/dcmitype/StillImage" />
        <cc:license
           rdf:resource="http://web.resource.org/cc/PublicDomain" />
        <dc:language>en</dc:language>
        <dc:title />
      </cc:Work>
    </rdf:RDF>
  </metadata>
  <sodipodi:namedview
     inkscape:window-height="973"
     inkscape:window-width="1280"
     inkscape:pageshadow="2"
     inkscape:pageopacity="0.0"
     guidetolerance="10.0"
     gridtolerance="10.0"
     objecttolerance="10.0"
     borderopacity="1.0"
     bordercolor="#666666"
     pagecolor="#ffffff"
     id="base"
     inkscape:zoom="0.92167712"
     inkscape:cx="556.19906"
     inkscape:cy="72.664815"
     inkscape:window-x="0"
     inkscape:window-y="0"
     inkscape:current-layer="svg2"
     showgrid="false"
     inkscape:window-maximized="1" />
  <defs
     id="defs4">
    <inkscape:perspective
       sodipodi:type="inkscape:persp3d"
       inkscape:vp_x="0 : 290 : 1"
       inkscape:vp_y="0 : 1000 : 0"
       inkscape:vp_z="580 : 290 : 1"
       inkscape:persp3d-origin="290 : 193.33333 : 1"
       id="perspective2441" />
    <inkscape:perspective
       id="perspective3452"
       inkscape:persp3d-origin="30 : 20 : 1"
       inkscape:vp_z="60 : 30 : 1"
       inkscape:vp_y="0 : 1000 : 0"
       inkscape:vp_x="0 : 30 : 1"
       sodipodi:type="inkscape:persp3d" />
    <symbol
       viewBox="244.5 110 489 219.9"
       id="symbol-university">
      <path
         id="path4460"
         d="M79,43l57,119c0,0,21-96,104-96s124,106,124,106l43-133l82-17L0,17L79,43z" />
      <path
         id="path4462"
         d="M94,176l-21,39"
         stroke-width="20"
         stroke="#000000"
         fill="none" />
      <path
         id="path4464"
         d="M300,19c0,10.5-22.6,19-50.5,19S199,29.5,199,19s22.6-19,50.5-19S300,8.5,300,19z" />
      <path
         id="path4466"
         d="M112,216l-16-38L64,88c0,0-9-8-4-35s16-24,16-24"
         stroke-width="20"
         stroke="#000000"
         ill="none" />
    </symbol>
    <inkscape:perspective
       id="perspective4471"
       inkscape:persp3d-origin="372.04724 : 350.78739 : 1"
       inkscape:vp_z="744.09448 : 526.18109 : 1"
       inkscape:vp_y="0 : 1000 : 0"
       inkscape:vp_x="0 : 526.18109 : 1"
       sodipodi:type="inkscape:persp3d" />
    <inkscape:perspective
       id="perspective4668"
       inkscape:persp3d-origin="6 : 4 : 1"
       inkscape:vp_z="12 : 6 : 1"
       inkscape:vp_y="0 : 1000 : 0"
       inkscape:vp_x="0 : 6 : 1"
       sodipodi:type="inkscape:persp3d" />
    <marker
       viewBox="0 0 10 10"
       refY="5"
       refX="10"
       orient="auto"
       markerWidth="4"
       markerUnits="strokeWidth"
       markerHeight="3"
       id="ArrowStart">
      <path
         id="path3634"
         d="M 10 0 L 0 5 L 10 10 z" />
    </marker>
    <marker
       viewBox="0 0 10 10"
       refY="5"
       refX="0"
       orient="auto"
       markerWidth="4"
       markerUnits="strokeWidth"
       markerHeight="3"
       id="ArrowEnd">
      <path
         id="path3631"
         d="M 0 0 L 10 5 L 0 10 z" />
    </marker>
    <inkscape:perspective
       id="perspective2510"
       inkscape:persp3d-origin="306.082 : 204.39034 : 1"
       inkscape:vp_z="612.164 : 306.58551 : 1"
       inkscape:vp_y="0 : 1000 : 0"
       inkscape:vp_x="0 : 306.58551 : 1"
       sodipodi:type="inkscape:persp3d" />
    <marker
       viewBox="0 0 10 10"
       refY="5"
       refX="10"
       orient="auto"
       markerWidth="4"
       markerUnits="strokeWidth"
       markerHeight="3"
       id="marker2611">
      <path
         id="path1325"
         d="M 10 0 L 0 5 L 10 10 z" />
    </marker>
    <marker
       viewBox="0 0 10 10"
       refY="5"
       refX="0"
       orient="auto"
       markerWidth="4"
       markerUnits="strokeWidth"
       markerHeight="3"
       id="marker2608">
      <path
         id="path1322"
         d="M 0 0 L 10 5 L 0 10 z" />
    </marker>
    <inkscape:perspective
       id="perspective2605"
       inkscape:persp3d-origin="306.082 : 204.39034 : 1"
       inkscape:vp_z="612.164 : 306.58551 : 1"
       inkscape:vp_y="0 : 1000 : 0"
       inkscape:vp_x="0 : 306.58551 : 1"
       sodipodi:type="inkscape:persp3d" />
    <inkscape:perspective
       id="perspective2656"
       inkscape:persp3d-origin="372.04724 : 350.78739 : 1"
       inkscape:vp_z="744.09448 : 526.18109 : 1"
       inkscape:vp_y="0 : 1000 : 0"
       inkscape:vp_x="0 : 526.18109 : 1"
       sodipodi:type="inkscape:persp3d" />
  </defs>
  <g
     id="g1327">
    <path
       d="M 66.275,1.768 C 24.94,1.768 1.704,23.139 1.704,66.804 L 1.704,516.927 C 1.704,557.771 22.599,579.156 63.896,579.156 L 515.92,579.156 C 557.227,579.156 578.149,558.841 578.149,516.927 L 578.149,66.804 C 578.149,24.203 557.227,1.768 514.628,1.768 C 514.624,1.768 66.133,1.625 66.275,1.768 z"
       style="fill:#111111;stroke:#eeeeee;stroke-width:3.40799999"
       id="path1329" />
  </g>
  <path
     style="font-size:medium;font-style:normal;font-variant:normal;font-weight:normal;font-stretch:normal;text-indent:0;text-align:start;text-decoration:none;line-height:normal;letter-spacing:normal;word-spacing:normal;text-transform:none;direction:ltr;block-progression:tb;writing-mode:lr-tb;text-anchor:start;opacity:0.75;color:#000000;fill:#ffffff;fill-opacity:1;stroke:none;stroke-width:30.78683472;marker:none;visibility:visible;display:inline;overflow:visible;enable-background:accumulate;font-family:Bitstream Charter;-inkscape-font-specification:Bitstream Charter"
     d="M 288.875 46.5 A 15.394957 15.394957 0 0 0 274.875 56.09375 L 235.28125 149.8125 L 268.71875 149.8125 L 290.65625 97.875 L 312.65625 149.8125 L 346.09375 149.8125 L 306.375 56.09375 A 15.394957 15.394957 0 0 0 290.5625 46.59375 A 15.394957 15.394957 0 0 0 288.875 46.5 z M 127.96875 423.8125 L 95.3125 502.8125 A 15.394957 15.394957 0 1 0 123.75 514.5625 L 161.25 423.8125 L 127.96875 423.8125 z M 418 423.8125 L 424.09375 433.6875 L 457.46875 514.5625 A 15.399125 15.399125 0 1 0 485.9375 502.8125 L 453.28125 423.8125 L 418 423.8125 z "
     id="path3526" />
  <path
     style="fill:#ffffff;fill-opacity:1;stroke:none"
     d="m 73.167106,152.23698 -0.413796,263.99105 436.52956,1.47975 1.12888,-266.40515 -437.244644,0.93435 z m 24.192414,59.39776 40.28404,0 c 6.70504,12.19548 13.43144,24.37922 20.12233,36.58248 7.69725,-12.19907 15.41111,-24.38766 23.11509,-36.58248 l 40.52031,0 c -13.8083,21.30392 -27.61951,42.60595 -41.42601,63.91104 14.93851,23.80192 29.81061,47.64546 44.77317,71.43231 l -39.96902,0 c -8.76273,-14.33012 -17.74972,-28.52106 -26.46224,-42.88301 -8.528,14.31236 -17.08171,28.60953 -25.67468,42.88301 l -38.866419,0 c 14.010939,-23.40841 28.083099,-46.78086 42.056069,-70.21158 -9.6424,-16.41862 -19.37244,-32.8028 -29.06122,-49.18354 l -9.41142,-15.94823 z m 271.90744,0 37.13377,0 c 8.90513,26.3422 17.76103,52.70109 26.69852,79.03233 8.37096,-26.34522 16.7683,-52.68206 25.12338,-79.03233 l 37.56693,0 -38.82704,107.89665 c -7.88329,16.10376 -9.0995,34.43583 -15.86947,50.91619 -8.50945,22.51405 -35.94795,33.9087 -58.59497,26.22598 -1.90194,-7.70081 -1.70849,-17.25061 -2.83524,-25.6353 -3.01157,-8.18267 3.06352,-5.21995 8.19069,-4.371 11.30327,2.73428 27.82621,-1.42202 29.53376,-14.76688 -12.59393,-44.50359 -30.28259,-87.67734 -45.12758,-131.60241 l -2.99275,-8.66323 z m -90.49143,5.04043 33.23532,0 0,45.24571 45.28509,0 0,32.80215 -45.28509,0 0,45.87577 -33.23532,0 0,-45.87577 -45.28509,0 0,-32.80215 23.86327,0 c 6.50899,-1.47169 19.03546,3.07409 21.42182,-2.52022 l 0,-42.72549 z"
     id="rect3530"
     sodipodi:nodetypes="cccccccccccccccccccccccccccccccccccccccccccccc" />
  <rect
     y="149.82085"
     x="73.263283"
     height="273.98654"
     width="437.7486"
     id="rect3544"
     style="fill:none;stroke:#ffffff;stroke-width:20.52455711;stroke-linecap:round;stroke-linejoin:round;stroke-miterlimit:4;stroke-opacity:1;stroke-dasharray:none;stroke-dashoffset:0" />
</svg>

<svg width="580" height="580" viewBox="0 0 580 580" fill="none" xmlns="http://www.w3.org/2000/svg">
<g clip-path="url(#clip0)">
<path d="M66.275 1.76802C24.94 1.76802 1.70398 23.139 1.70398 66.804V516.927C1.70398 557.771 22.599 579.156 63.896 579.156H515.92C557.227 579.156 578.149 558.841 578.149 516.927V66.804C578.149 24.203 557.227 1.76802 514.628 1.76802C514.624 1.76802 66.133 1.62502 66.275 1.76802Z" fill="#111111" stroke="#EEEEEE" stroke-width="3.408"/>
<path opacity="0.75" d="M288.875 46.5C285.858 46.5512 282.923 47.4878 280.434 49.1934C277.945 50.8991 276.012 53.2986 274.875 56.0938L235.281 149.812H268.719L290.656 97.875L312.656 149.812H346.094L306.375 56.0938C305.119 53.0149 302.9 50.4256 300.049 48.7132C297.199 47.0007 293.871 46.2572 290.563 46.5938C290.002 46.5316 289.439 46.5003 288.875 46.5V46.5ZM127.969 423.812L95.3125 502.812C94.4531 504.695 93.9819 506.731 93.927 508.799C93.8721 510.867 94.2347 512.925 94.9931 514.85C95.7516 516.775 96.8902 518.528 98.3411 520.003C99.792 521.478 101.525 522.645 103.438 523.435C105.35 524.226 107.402 524.622 109.471 524.601C111.54 524.581 113.583 524.143 115.479 523.315C117.375 522.487 119.085 521.285 120.506 519.781C121.927 518.277 123.03 516.502 123.75 514.562L161.25 423.812H127.969ZM418 423.812L424.094 433.688L457.469 514.562C459.027 518.338 462.021 521.339 465.792 522.907C469.563 524.475 473.803 524.48 477.578 522.922C481.353 521.364 484.355 518.37 485.923 514.598C487.49 510.827 487.496 506.588 485.938 502.812L453.281 423.812H418Z" fill="white"/>
<path d="M73.1671 152.237L72.7533 416.228L509.283 417.708L510.412 151.303L73.1671 152.237V152.237ZM97.3595 211.635H137.644C144.349 223.83 151.075 236.014 157.766 248.217C165.463 236.018 173.177 223.83 180.881 211.635H221.401C207.593 232.939 193.782 254.241 179.975 275.546C194.914 299.348 209.786 323.191 224.748 346.978H184.779C176.017 332.648 167.03 318.457 158.317 304.095C149.789 318.407 141.235 332.705 132.643 346.978H93.7761C107.787 323.57 121.859 300.197 135.832 276.766C126.19 260.348 116.46 243.964 106.771 227.583L97.3595 211.635V211.635ZM369.267 211.635H406.401C415.306 237.977 424.162 264.336 433.099 290.667C441.47 264.322 449.868 237.985 458.223 211.635H495.79L456.963 319.531C449.079 335.635 447.863 353.967 441.093 370.448C432.584 392.962 405.145 404.356 382.498 396.674C380.596 388.973 380.79 379.423 379.663 371.038C376.651 362.856 382.726 365.818 387.854 366.667C399.157 369.402 415.68 365.245 417.387 351.9C404.793 307.397 387.105 264.223 372.26 220.298L369.267 211.635V211.635ZM278.776 216.675H312.011V261.921H357.296V294.723H312.011V340.599H278.776V294.723H233.49V261.921H257.354C263.863 260.449 276.389 264.995 278.776 259.401V216.675V216.675Z" fill="white"/>
<path d="M511.012 149.821H73.2633V423.807H511.012V149.821Z" stroke="white" stroke-width="20.5246" stroke-linecap="round" stroke-linejoin="round"/>
</g>
<defs>
<clipPath id="clip0">
<path d="M0 0H580V580H0V0Z" fill="white"/>
</clipPath>
</defs>
</svg>
